public/assets/call-primary.svg

<svg width="21" height="21" viewBox="0 0 21 21" fill="none" xmlns="http://www.w3.org/2000/svg">
<path d="M18.44 11.7125C18.22 11.7125 17.99 11.6425 17.77 11.5925C17.3245 11.4943 16.8867 11.364 16.46 11.2025C15.9961 11.0337 15.4862 11.0425 15.0283 11.2271C14.5705 11.4117 14.1971 11.7591 13.98 12.2025L13.76 12.6525C12.786 12.1107 11.891 11.4377 11.1 10.6525C10.3148 9.86153 9.64183 8.96651 9.10001 7.99251L9.52001 7.71251C9.96338 7.49543 10.3108 7.12204 10.4954 6.66421C10.68 6.20637 10.6888 5.69643 10.52 5.23251C10.3612 4.80494 10.2309 4.36731 10.13 3.92251C10.08 3.70251 10.04 3.47251 10.01 3.24251C9.88857 2.53813 9.51963 1.90026 8.96963 1.44375C8.41963 0.987251 7.72471 0.742123 7.01001 0.752515H4.01001C3.57904 0.748468 3.15226 0.837328 2.75872 1.01305C2.36518 1.18876 2.01412 1.44721 1.72944 1.7708C1.44476 2.09438 1.23314 2.47551 1.109 2.88823C0.984851 3.30095 0.951089 3.73557 1.01001 4.16251C1.54275 8.3519 3.45604 12.2444 6.44766 15.2252C9.43928 18.2059 13.3387 20.105 17.53 20.6225H17.91C18.6474 20.6236 19.3594 20.353 19.91 19.8625C20.2264 19.5796 20.4791 19.2327 20.6515 18.8448C20.8239 18.457 20.912 18.037 20.91 17.6125V14.6125C20.8978 13.9179 20.6448 13.2491 20.1943 12.7202C19.7439 12.1913 19.1238 11.8351 18.44 11.7125V11.7125ZM18.94 17.7125C18.9398 17.8545 18.9094 17.9948 18.8508 18.1241C18.7922 18.2535 18.7067 18.3688 18.6 18.4625C18.4886 18.5595 18.358 18.6319 18.2167 18.675C18.0754 18.7181 17.9266 18.7309 17.78 18.7125C14.0349 18.2323 10.5562 16.519 7.89273 13.8428C5.22921 11.1666 3.53242 7.67985 3.07001 3.93251C3.05409 3.78603 3.06804 3.63784 3.11101 3.49691C3.15398 3.35597 3.22508 3.2252 3.32001 3.11251C3.41372 3.00585 3.52907 2.92036 3.65839 2.86173C3.78771 2.80311 3.92802 2.77269 4.07001 2.77251H7.07001C7.30256 2.76734 7.52963 2.84339 7.71215 2.98759C7.89467 3.13178 8.02122 3.33508 8.07001 3.56251C8.11001 3.83585 8.16001 4.10585 8.22001 4.37251C8.33553 4.89966 8.48927 5.41769 8.68001 5.92251L7.28001 6.57251C7.16031 6.62744 7.05263 6.70546 6.96317 6.80211C6.8737 6.89876 6.80421 7.01213 6.75868 7.13571C6.71315 7.25929 6.69248 7.39065 6.69786 7.52224C6.70323 7.65383 6.73455 7.78306 6.79001 7.90251C8.22921 10.9853 10.7073 13.4633 13.79 14.9025C14.0335 15.0025 14.3065 15.0025 14.55 14.9025C14.6747 14.8579 14.7893 14.789 14.8872 14.6997C14.985 14.6104 15.0642 14.5026 15.12 14.3825L15.74 12.9825C16.257 13.1674 16.7846 13.321 17.32 13.4425C17.5867 13.5025 17.8567 13.5525 18.13 13.5925C18.3574 13.6413 18.5607 13.7679 18.7049 13.9504C18.8491 14.1329 18.9252 14.36 18.92 14.5925L18.94 17.7125Z" fill="#DFBB41"/>
</svg>

<svg width="21" height="21" fill="none" xmlns="http://www.w3.org/2000/svg"><path d="M18.44 11.713c-.22 0-.45-.07-.67-.12a9.443 9.443 0 0 1-1.31-.39 2 2 0 0 0-2.48 1l-.22.45a12.18 12.18 0 0 1-2.66-2 12.18 12.18 0 0 1-2-2.66l.42-.28a2 2 0 0 0 1-2.48 10.32 10.32 0 0 1-.39-1.31c-.05-.22-.09-.45-.12-.68a3 3 0 0 0-3-2.49h-3a3 3 0 0 0-3 3.41 19 19 0 0 0 16.52 16.46h.38a3 3 0 0 0 2.741-1.778c.173-.388.261-.808.259-1.232v-3a3 3 0 0 0-2.47-2.9Zm.5 6a1 1 0 0 1-.723.962c-.142.043-.29.056-.437.037A17 17 0 0 1 3.07 3.932a1.09 1.09 0 0 1 .25-.82 1 1 0 0 1 .75-.34h3a1 1 0 0 1 1 .79c.04.274.09.544.15.81.116.528.27 1.046.46 1.55l-1.4.65a1 1 0 0 0-.49 1.33 14.49 14.49 0 0 0 7 7 1 1 0 0 0 .76 0 1 1 0 0 0 .57-.52l.62-1.4c.517.185 1.045.339 1.58.46.267.06.537.11.81.15a1 1 0 0 1 .79 1l.02 3.12Z" fill="#DFBB41"/></svg>
